X:62
T:score152
L:1/16
Q:1/4=96
M:2/4
I:linebreak $
K:Emin
!f! B2 |!ff! B2 e4 BA | G6 G2 | F2(c2- cB)FG | (EB,)EG FE^DF |$ EBeg fe^df | eB,EG FE^DF | %7
 EBeg fe^df | e4 e4 | !fermata!E8 |] %10
